X:1
T:Colchester, 88.88.88
T:Colchester, 88.88.88
T:Samuel Sebastian Wesley, 1872
T:Public Domain Courtesy of the Cyber Hymnal™
C:Samuel Sebastian Wesley, 1872
Z:Public Domain
Z:Courtesy of the Cyber Hymnal™
%%score ( 1 2 ) ( 3 4 )
L:1/8
Q:1/4=110
M:4/4
K:Eb
V:1 treble 
V:2 treble 
V:3 bass 
V:4 bass 
V:1
 [EG]2 | [DB]2 E2 [CA]2 [CF]2 | [B,E]2 [B,D]2 [B,E]2 [FB]2 | [Ee]2 [B,d]2 [Cc]2 [DF]2 | %4
 [EB]2 ([FA][EG]) [DF]2 [DG]2 | E2 [EA]2 [FA]2 [EG]2 | [EF]2 [Dc]2 [EB]2 B2 | %7
 [Gc]2 [Ee]2 [Fd]2 [Gc]2 | [FB]2 =A2 [DB]2 [B,D]2 | [B,E]2 [DF]2 [EG]2 [EG]2 | %10
 [EA]2 [EB]2 [Ec]2 [Ec]2 | [Ad]2 [Ge]2 [EF]2 (GA) | [EG]2 [DF]2 E2 |] %13
V:2
 x2 | x2 E2 x4 | x8 | x8 | x8 | E2 x6 | x6 (ED) | x8 | x2 (FE) x4 | x8 | x8 | x6 E2 | x4 E2 |] %13
V:3
 [E,B,]2 | [B,,B,]2 [C,G,]2 [F,,C]2 [A,,A,]2 | [B,,G,]2 [B,,F,]2 [E,G,]2 [D,B,]2 | %3
 [C,G,]2 [G,,B,]2 [A,,E,]2 [A,B,]2 | [G,B,]2 [A,C]2 [B,D]2 [B,,B,]2 | %5
 [C,G,]2 [C,C]2 [D,B,]2 [E,B,]2 | [A,C]2 [A,,F,]2 [G,,B,]2 G,2 | [E,G,]2 (G,=A,) [D,=B,]2 [E,C]2 | %8
 [F,D]2 [F,C]2 [B,,B,]2 [A,B,]2 | [G,B,]2 [F,B,]2 [E,B,]2 [_D,B,]2 | %10
 [C,A,]2 [B,,G,]2 [A,,A,]2 [G,A,]2 | [F,A,]2 [E,B,]2 [A,,C]2 [F,,A,]2 | [B,,B,]2 (B,A,) [E,G,]2 |] %13
V:4
 x2 | x8 | x8 | x8 | x8 | x8 | x6 (G,F,) | x2 C,2 x4 | x8 | x8 | x8 | x8 | x2 B,,2 x2 |] %13

